X:1
T:Title
%%score { ( 1 4 ) | ( 2 3 ) }
L:1/8
Q:1/4=87
M:6/8
K:F
V:1 treble nm="Grand Piano"
V:4 treble 
V:2 bass 
V:3 bass 
V:1
 c>BA c2 d | c2 B A3 | [EG]>[EG][EG] [GB]2 [FA] |[M:5/8] [EG]- [EG]3 z |[M:1/8] C | %5
w: S.~M.~Bixby * * * *|||||
[M:3/4] A>G [A,CF] [CEG]2 [CFA] | .B2 z2 z2 | D2 z .A3 |[M:5/8] F- F3 z |[M:1/8] A | %10
w: |||||
[M:3/4] A>B A [EG]2 [EB] | [Ed][Fc] [CGB] [CFA]2 [CAc] | [Ge]d c d2 e |[M:5/8] [Ec]- [Ec]3 z | %14
w: ||||
[M:1/8] [EG] |[M:3/4] [EG]A [CGB] [CGB]2 [CGB] | [CFA]2 [Fc] [Fd]3 | %17
w: |||
 [A,F][A,F] [A,F] [CFA]2 [B,EG] | [A,F]4 z2 |] %19
w: ||
V:2
 [F,A,F]>[F,DF][F,CF] [F,A,F]2 [F,B,F] | [F,A,F]2 [F,DF] [F,CF]3 | [C,C]>[C,C][C,C] [E,C]2 [F,C] | %3
[M:5/8] [C,C]- [C,C]3 z |[M:1/8] [E,B,] |[M:3/4] A,2 z2 z2 | %6
 G,A,[K:treble] [B,F] [F,A,F]2[K:bass] [A,,F,] | z2 z [F,C] z2 |[M:5/8] [F,A,]- [F,A,]3 z | %9
[M:1/8] [F,CF] |[M:3/4] [F,CF]2 [F,CF] [C,C]2 [C,G,] | G,2 z2 z2 | z F [G,CE] [G,=B,F]2 [G,B,G] | %13
[M:5/8][K:bass] [C,C]- [C,C]3 z |[M:1/8] [C,C] |[M:3/4] [C,C]2 z2 z2 | z2 z B, z2 | %17
 C,C, C, C,2 C, | F,4 z2 |] %19
V:3
 x6 | x6 | x6 |[M:5/8] x5 |[M:1/8] x |[M:3/4] [F,C]->[F,B,C] F, C,2 F, | %6
 x2[K:treble] x3[K:bass] x | [B,,F,]2 [B,,F,]C,- [C,A,]C, |[M:5/8] x5 |[M:1/8] x |[M:3/4] x6 | %11
 C,D, E, F,2 F, | [G,C]2 z2 z2 |[M:5/8][K:bass] x5 |[M:1/8] x |[M:3/4] z F C,C, D,E, | %16
 F,2 [F,A,]B,,- [B,,-F,][B,,G,] | x6 | x6 |] %19
V:4
 x6 | x6 | x6 |[M:5/8] x5 |[M:1/8] x |[M:3/4] x6 | [CF]-[CFc] d c2 [_EF] | z F .[DB]2 F[B,EG] | %8
[M:5/8] x5 |[M:1/8] x |[M:3/4] x6 | x6 | x6 |[M:5/8] x5 |[M:1/8] x |[M:3/4] x6 | x6 | x6 | x6 |] %19

